ui/public/images/landing-cards/network.svg

<svg width="80" height="80" viewBox="0 0 80 80" fill="none" xmlns="http://www.w3.org/2000/svg">
<path d="M5.10751 52.9846C4.06136 52.9846 3.04597 52.6462 2.2152 52.0308C1.13828 51.2615 0.461355 50.0923 0.245971 48.8C-0.184799 46.0923 1.66136 43.5692 4.36905 43.1385C5.69212 42.9231 6.98443 43.2615 8.06136 44.0308C9.13828 44.8 9.8152 45.9692 10.0306 47.2615C10.4614 49.9692 8.6152 52.4923 5.90751 52.9231C5.63059 52.9846 5.38443 52.9846 5.10751 52.9846ZM2.18443 48.4923C2.30751 49.2615 2.73828 49.9692 3.35366 50.4308C3.99982 50.8923 4.76905 51.0769 5.56905 50.9538C7.19982 50.7077 8.30751 49.1692 8.03059 47.5692C7.90751 46.8 7.47674 46.0923 6.86136 45.6308C6.2152 45.1692 5.44597 44.9846 4.64597 45.1077C3.04597 45.3538 1.93828 46.8923 2.18443 48.4923Z" fill="#E1000F"/>
<path d="M20.6461 12.4307C20.6461 8.95381 17.8154 6.15381 14.3692 6.15381C10.9231 6.15381 8.09229 8.95381 8.09229 12.4307C8.09229 15.8769 10.8923 18.7077 14.3692 18.7077C15.0769 18.7077 15.7538 18.5538 16.3692 18.3384L18.7384 23.3846L20.5231 22.5538L18.1231 17.3846C19.6307 16.2461 20.6461 14.4615 20.6461 12.4307ZM10.0615 12.4307C10.0615 10.0615 12 8.15381 14.3384 8.15381C16.7077 8.15381 18.6154 10.0923 18.6154 12.4307C18.6154 14.7692 16.7384 16.7077 14.3692 16.7077C12 16.7077 10.0615 14.8 10.0615 12.4307Z" fill="#E1000F"/>
<path d="M49.0464 15.4463L43.0156 13.0463C43.0464 12.8309 43.0771 12.6463 43.0771 12.4309C43.0771 9.69244 40.8617 7.47705 38.1233 7.47705C35.3848 7.47705 33.1694 9.69244 33.1694 12.4309C33.1694 15.1694 35.3848 17.3847 38.1233 17.3847C39.9387 17.3847 41.5079 16.4001 42.3694 14.9232L48.3079 17.2924L49.0464 15.4463ZM38.1233 15.3847C36.4925 15.3847 35.1694 14.0617 35.1694 12.4309C35.1694 10.8001 36.4925 9.47705 38.1233 9.47705C39.7541 9.47705 41.0771 10.8001 41.0771 12.4309C41.0771 14.0617 39.7541 15.3847 38.1233 15.3847Z" fill="#E1000F"/>
<path d="M55.2306 50.0616L60.1537 36.5231L58.3076 35.8462L53.3537 49.4462C52.246 49.1385 51.0768 48.9231 49.8768 48.9231C42.5537 48.9231 36.5845 54.8923 36.5845 62.2154C36.5845 69.5385 42.5537 75.5077 49.8768 75.5077C57.1999 75.5077 63.1691 69.5385 63.1691 62.2154C63.1691 56.7693 59.9076 52.1231 55.2306 50.0616ZM49.8768 72.9539C47.4768 72.9539 45.2614 72.1539 43.4768 70.8308C43.7229 69.8154 44.4922 67.7231 46.9537 65.9077C47.7537 66.3077 48.6152 66.5539 49.5691 66.5539C50.5229 66.5539 51.446 66.277 52.246 65.877C55.0768 67.9385 55.6922 70.3693 55.8152 71.1693C54.0922 72.3077 52.0614 72.9539 49.8768 72.9539ZM46.3691 60.8308C46.3691 59.077 47.8152 57.6308 49.5691 57.6308C51.3229 57.6308 52.7691 59.077 52.7691 60.8308C52.7691 62.5847 51.3229 64.0308 49.5691 64.0308C47.8152 64.0308 46.3691 62.5847 46.3691 60.8308ZM57.9383 69.2924C57.446 67.877 56.3999 65.9385 54.2152 64.1847C54.8922 63.2308 55.3229 62.0924 55.3229 60.8308C55.3229 57.6616 52.7383 55.077 49.5691 55.077C46.3999 55.077 43.8152 57.6616 43.8152 60.8308C43.8152 62.1231 44.246 63.2923 44.9537 64.2462C43.0152 65.8154 41.9999 67.5077 41.446 68.8616C39.9999 67.0154 39.1383 64.7077 39.1383 62.2154C39.1383 56.277 43.9691 51.477 49.8768 51.477C55.7845 51.477 60.6152 56.3077 60.6152 62.2154C60.6152 64.9231 59.5999 67.4154 57.9383 69.2924Z" fill="#00008F"/>
<path d="M42.8307 52.677L37.2923 46C39.4153 43.6308 40.7692 40.5539 40.7692 37.1077C40.7692 29.7847 34.8 23.8154 27.4769 23.8154C20.1538 23.8154 14.1538 29.8154 14.1538 37.1385C14.1538 44.4616 20.123 50.4308 27.4461 50.4308C30.6461 50.4308 33.5384 49.2616 35.8461 47.3539L41.323 53.9385L42.8307 52.677ZM16.7077 37.1385C16.7077 31.2 21.5384 26.4 27.4461 26.4C33.3538 26.4 38.1846 31.2308 38.1846 37.1385C38.1846 39.8462 37.1692 42.3385 35.4769 44.2462C34.9846 42.8308 33.9384 40.8924 31.7538 39.1385C32.4307 38.1847 32.8615 37.0462 32.8615 35.7847C32.8615 32.6154 30.2769 30.0308 27.1077 30.0308C23.9384 30.0308 21.3538 32.6154 21.3538 35.7847C21.3538 37.077 21.7846 38.2462 22.4923 39.2C20.5538 40.7693 19.5384 42.4616 18.9846 43.8154C17.5692 41.9693 16.7077 39.6616 16.7077 37.1385ZM30.3077 35.7539C30.3077 37.5077 28.8615 38.9539 27.1077 38.9539C25.3538 38.9539 23.9077 37.5077 23.9077 35.7539C23.9077 34 25.3538 32.5539 27.1077 32.5539C28.8615 32.5539 30.3077 34 30.3077 35.7539ZM27.4461 47.877C25.0461 47.877 22.8307 47.077 21.0461 45.7539C21.2923 44.7385 22.0615 42.6462 24.523 40.8308C25.323 41.2308 26.1846 41.477 27.1384 41.477C28.0923 41.477 29.0153 41.2 29.8153 40.8C32.6461 42.8616 33.2615 45.2924 33.3846 46.0924C31.6615 47.2308 29.6307 47.877 27.4461 47.877Z" fill="#00008F"/>
<path d="M31.0769 68.1231C30.6461 66.1538 29.1076 64.6769 27.2307 64.3077V52H25.2615V64.3077H25.2307C23.9384 64.5846 22.8307 65.3538 22.123 66.4615C21.4153 67.5692 21.1692 68.8923 21.4461 70.1846C21.9384 72.4923 23.9999 74.0923 26.2769 74.0923C26.6153 74.0923 26.9538 74.0615 27.2922 73.9692C28.5845 73.6923 29.6922 72.9231 30.3999 71.8154C31.1076 70.7385 31.3538 69.4154 31.0769 68.1231ZM28.7384 70.7692C28.3076 71.4462 27.6307 71.8769 26.8615 72.0615C25.2615 72.4 23.6922 71.3846 23.3538 69.7846C23.1999 69.0154 23.323 68.2154 23.7538 67.5385C24.1845 66.8615 24.8615 66.4308 25.6307 66.2462C27.2307 65.9077 28.7999 66.9231 29.1384 68.5231C29.2922 69.3231 29.1692 70.0923 28.7384 70.7692Z" fill="#E1000F"/>
<path d="M76.369 21.3231C76.369 14 70.3998 8.03076 63.0767 8.03076C55.7537 8.03076 49.7844 14 49.7844 21.3231C49.7844 23.1692 50.1844 24.9538 50.8613 26.5538L38.7998 31.1385L39.5075 32.9846L51.846 28.3077C54.1844 32.0923 58.3383 34.6154 63.1075 34.6154C64.9537 34.6154 66.7075 34.2461 68.3075 33.5385L71.5075 43.0769L73.3844 42.4615L70.0613 32.6154C73.8152 30.2461 76.369 26.0923 76.369 21.3231ZM52.3075 21.3231C52.3075 15.3846 57.1383 10.5538 63.0767 10.5538C69.0152 10.5538 73.8152 15.3846 73.8152 21.2923C73.8152 24 72.7998 26.4923 71.1075 28.4C70.6152 26.9846 69.569 25.0154 67.3844 23.2923C68.0613 22.3385 68.4921 21.2 68.4921 19.9385C68.4921 16.7692 65.9075 14.1846 62.7383 14.1846C59.569 14.1846 56.9844 16.7692 56.9844 19.9385C56.9844 21.2308 57.4152 22.4 58.1229 23.3538C56.1844 24.9231 55.169 26.6154 54.6152 27.9692C53.1998 26.1231 52.3075 23.8154 52.3075 21.3231ZM65.9383 19.9385C65.9383 21.6923 64.4921 23.1385 62.7383 23.1385C60.9844 23.1385 59.5383 21.6923 59.5383 19.9385C59.5383 18.1846 60.9844 16.7385 62.7383 16.7385C64.4921 16.7385 65.9383 18.1538 65.9383 19.9385ZM56.6767 29.9384C56.9229 28.9231 57.6921 26.8308 60.1537 25.0154C60.9536 25.4154 61.8152 25.6615 62.769 25.6615C63.7229 25.6615 64.646 25.3846 65.446 24.9846C68.2767 27.0461 68.8921 29.4769 69.0152 30.2769C67.3229 31.4154 65.2921 32.0615 63.1075 32.0615C60.6767 32.0615 58.4613 31.2615 56.6767 29.9384Z" fill="#00008F"/>
<path d="M16.5761 41.8894L11.2905 44.5283L12.1702 46.2902L17.4558 43.6512L16.5761 41.8894Z" fill="#00008F"/>
<path d="M75.0459 44.3999C72.3075 44.3999 70.0921 46.6153 70.0921 49.3538C70.0921 50.3076 70.369 51.1691 70.8306 51.9076L64.8306 56.4307L66.0613 57.9999L72.1844 53.3845C72.9844 53.9691 73.969 54.3076 75.0459 54.3076C77.7844 54.3076 79.9998 52.0922 79.9998 49.3538C79.9998 46.6153 77.7844 44.3999 75.0459 44.3999ZM75.0459 52.3384C73.4152 52.3384 72.0921 51.0153 72.0921 49.3845C72.0921 47.7537 73.4152 46.4307 75.0459 46.4307C76.6767 46.4307 77.9998 47.7537 77.9998 49.3845C77.9998 51.0153 76.6767 52.3384 75.0459 52.3384Z" fill="#E1000F"/>
</svg>

<svg width="80" height="80" fill="none" xmlns="http://www.w3.org/2000/svg"><path d="M5.108 52.985a4.865 4.865 0 0 1-2.893-.954C1.138 51.26.461 50.092.246 48.8a4.944 4.944 0 0 1 4.123-5.661c1.323-.216 2.615.122 3.692.892 1.077.769 1.754 1.938 1.97 3.23a4.944 4.944 0 0 1-4.123 5.662c-.277.062-.524.062-.8.062zm-2.924-4.493c.124.77.554 1.477 1.17 1.939a2.971 2.971 0 0 0 2.215.523c1.63-.246 2.739-1.785 2.462-3.385a3.052 3.052 0 0 0-1.17-1.938 2.97 2.97 0 0 0-2.215-.523c-1.6.246-2.708 1.784-2.462 3.384zM20.646 12.43c0-3.476-2.83-6.276-6.277-6.276-3.446 0-6.277 2.8-6.277 6.277 0 3.446 2.8 6.277 6.277 6.277.708 0 1.385-.154 2-.37l2.37 5.047 1.784-.831-2.4-5.17c1.508-1.138 2.523-2.923 2.523-4.953zm-10.585 0a4.288 4.288 0 0 1 4.277-4.276 4.288 4.288 0 0 1 4.277 4.277c0 2.338-1.877 4.277-4.246 4.277-2.369 0-4.307-1.908-4.307-4.277zM49.046 15.446l-6.03-2.4c.03-.215.061-.4.061-.615a4.95 4.95 0 0 0-4.954-4.954 4.95 4.95 0 0 0-4.954 4.954 4.95 4.95 0 0 0 4.954 4.954c1.816 0 3.385-.985 4.246-2.462l5.939 2.37.738-1.847zm-10.923-.061a2.955 2.955 0 1 1 .002-5.91 2.955 2.955 0 0 1-.002 5.91z" fill="#E1000F"/><path d="m55.23 50.062 4.924-13.539-1.846-.677-4.954 13.6c-1.108-.307-2.277-.523-3.477-.523-7.323 0-13.293 5.97-13.293 13.292 0 7.323 5.97 13.293 13.293 13.293 7.323 0 13.292-5.97 13.292-13.293 0-5.446-3.261-10.092-7.938-12.153zm-5.353 22.892c-2.4 0-4.616-.8-6.4-2.123.246-1.016 1.015-3.108 3.477-4.923.8.4 1.661.646 2.615.646.954 0 1.877-.277 2.677-.677 2.83 2.062 3.446 4.492 3.57 5.292a10.706 10.706 0 0 1-5.94 1.785zM46.369 60.83c0-1.754 1.446-3.2 3.2-3.2 1.754 0 3.2 1.446 3.2 3.2 0 1.754-1.446 3.2-3.2 3.2a3.217 3.217 0 0 1-3.2-3.2zm11.57 8.461c-.493-1.415-1.54-3.353-3.724-5.107.677-.954 1.108-2.093 1.108-3.354a5.765 5.765 0 0 0-5.754-5.754 5.765 5.765 0 0 0-5.754 5.754c0 1.292.431 2.461 1.139 3.415-1.939 1.57-2.954 3.262-3.508 4.616a10.75 10.75 0 0 1-2.308-6.647c0-5.938 4.831-10.738 10.739-10.738 5.907 0 10.738 4.83 10.738 10.738 0 2.708-1.015 5.2-2.677 7.077z" fill="#00008F"/><path d="M42.83 52.677 37.293 46c2.123-2.37 3.477-5.446 3.477-8.892 0-7.323-5.969-13.293-13.292-13.293-7.323 0-13.323 6-13.323 13.323 0 7.324 5.969 13.293 13.292 13.293 3.2 0 6.092-1.17 8.4-3.077l5.477 6.584 1.508-1.261zM16.709 37.139c0-5.939 4.83-10.739 10.738-10.739 5.908 0 10.739 4.83 10.739 10.739 0 2.707-1.016 5.2-2.708 7.107-.492-1.415-1.539-3.354-3.723-5.108.677-.953 1.107-2.092 1.107-3.353a5.765 5.765 0 0 0-5.753-5.754 5.765 5.765 0 0 0-5.754 5.754c0 1.292.43 2.461 1.138 3.415-1.938 1.57-2.954 3.262-3.507 4.615a10.934 10.934 0 0 1-2.277-6.676zm13.6-1.385c0 1.754-1.447 3.2-3.2 3.2a3.217 3.217 0 0 1-3.2-3.2c0-1.754 1.446-3.2 3.2-3.2 1.753 0 3.2 1.446 3.2 3.2zm-2.862 12.123c-2.4 0-4.615-.8-6.4-2.123.246-1.015 1.015-3.108 3.477-4.923.8.4 1.662.646 2.615.646.954 0 1.877-.277 2.677-.677 2.831 2.062 3.446 4.492 3.57 5.292a10.707 10.707 0 0 1-5.939 1.785z" fill="#00008F"/><path d="M31.077 68.123c-.43-1.97-1.97-3.446-3.846-3.815V52h-1.97v12.308h-.03a4.882 4.882 0 0 0-3.108 2.153 4.953 4.953 0 0 0-.677 3.724c.492 2.307 2.554 3.907 4.83 3.907.34 0 .678-.03 1.016-.123a4.882 4.882 0 0 0 3.108-2.154c.708-1.076.954-2.4.677-3.692zm-2.339 2.646c-.43.677-1.107 1.108-1.877 1.292a2.954 2.954 0 0 1-3.507-2.276c-.154-.77-.031-1.57.4-2.246.43-.677 1.107-1.108 1.877-1.293 1.6-.338 3.169.677 3.507 2.277.154.8.031 1.57-.4 2.246z" fill="#E1000F"/><path d="M76.369 21.323c0-7.323-5.97-13.292-13.292-13.292-7.323 0-13.293 5.969-13.293 13.292 0 1.846.4 3.63 1.077 5.23L38.8 31.139l.708 1.847 12.338-4.677c2.338 3.784 6.492 6.307 11.262 6.307 1.846 0 3.6-.369 5.2-1.077l3.2 9.539 1.876-.615-3.323-9.847c3.754-2.369 6.308-6.523 6.308-11.292zm-24.062 0c0-5.938 4.831-10.77 10.77-10.77 5.938 0 10.738 4.832 10.738 10.74 0 2.707-1.015 5.2-2.707 7.107-.493-1.415-1.539-3.385-3.724-5.108.677-.954 1.108-2.092 1.108-3.354a5.765 5.765 0 0 0-5.754-5.753 5.765 5.765 0 0 0-5.754 5.754c0 1.292.431 2.461 1.139 3.415-1.939 1.57-2.954 3.261-3.508 4.615-1.415-1.846-2.308-4.154-2.308-6.646zm13.631-1.384c0 1.753-1.446 3.2-3.2 3.2a3.217 3.217 0 0 1-3.2-3.2c0-1.754 1.446-3.2 3.2-3.2 1.754 0 3.2 1.415 3.2 3.2zm-9.261 10c.246-1.016 1.015-3.108 3.477-4.924.8.4 1.661.646 2.615.646.954 0 1.877-.276 2.677-.676 2.83 2.061 3.446 4.492 3.57 5.292a10.53 10.53 0 0 1-5.909 1.785c-2.43 0-4.646-.8-6.43-2.124zM16.576 41.89l-5.286 2.638.88 1.762 5.286-2.639-.88-1.762z" fill="#00008F"/><path d="M75.046 44.4a4.95 4.95 0 0 0-4.954 4.954c0 .954.277 1.815.739 2.554l-6 4.523L66.06 58l6.123-4.615c.8.584 1.785.923 2.862.923A4.95 4.95 0 0 0 80 49.354a4.95 4.95 0 0 0-4.954-4.954zm0 7.938a2.955 2.955 0 1 1 .002-5.909 2.955 2.955 0 0 1-.002 5.91z" fill="#E1000F"/></svg>
